Papirus-GTK/24x24/apps/kanatest.svg

<?xml version="1.0" encoding="UTF-8" standalone="no"?>
<!-- Created with Inkscape (http://www.inkscape.org/) -->

<svg
   xmlns:dc="http://purl.org/dc/elements/1.1/"
   xmlns:cc="http://creativecommons.org/ns#"
   xmlns:rdf="http://www.w3.org/1999/02/22-rdf-syntax-ns#"
   xmlns:svg="http://www.w3.org/2000/svg"
   xmlns="http://www.w3.org/2000/svg"
   xmlns:sodipodi="http://sodipodi.sourceforge.net/DTD/sodipodi-0.dtd"
   xmlns:inkscape="http://www.inkscape.org/namespaces/inkscape"
   id="svg2817"
   height="24"
   width="24"
   version="1.0"
   inkscape:version="0.91 r13725"
   sodipodi:docname="kanatest.svg">
  <sodipodi:namedview
     pagecolor="#ffffff"
     bordercolor="#666666"
     borderopacity="1"
     objecttolerance="10"
     gridtolerance="10"
     guidetolerance="10"
     inkscape:pageopacity="0"
     inkscape:pageshadow="2"
     inkscape:window-width="1600"
     inkscape:window-height="849"
     id="namedview21"
     showgrid="false"
     inkscape:zoom="9.95"
     inkscape:cx="-6.3950002"
     inkscape:cy="14.1958"
     inkscape:window-x="0"
     inkscape:window-y="0"
     inkscape:window-maximized="1"
     inkscape:current-layer="svg2817" />
  <metadata
     id="metadata57">
    <rdf:RDF>
      <cc:Work
         rdf:about="">
        <dc:format>image/svg+xml</dc:format>
        <dc:type
           rdf:resource="http://purl.org/dc/dcmitype/StillImage" />
        <dc:title></dc:title>
      </cc:Work>
    </rdf:RDF>
  </metadata>
  <defs
     id="defs2819" />
  <g
     id="g4219">
    <rect
       x="-22"
       y="-22"
       width="20"
       height="20"
       ry="1"
       rx="1"
       transform="matrix(0,-1,-1,0,0,0)"
       id="rect4203"
       style="fill:#e9a84a" />
    <path
       d="M 3,2 C 2.446,2 2,2.446 2,3 l 0,0.5 c 0,-0.554 0.446,-1 1,-1 l 18,0 c 0.554,0 1,0.446 1,1 L 22,3 C 22,2.446 21.554,2 21,2 L 3,2 Z"
       id="rect4592"
       inkscape:connector-curvature="0"
       style="opacity:0.2;fill:#ffffff" />
    <path
       d="M 3,22 C 2.446,22 2,21.554 2,21 l 0,-0.5 c 0,0.554 0.446,1 1,1 l 18,0 c 0.554,0 1,-0.446 1,-1 l 0,0.5 c 0,0.554 -0.446,1 -1,1 L 3,22 Z"
       id="path4597"
       inkscape:connector-curvature="0"
       style="opacity:0.3" />
    <g
       style="opacity:0.4"
       transform="matrix(0.5,0,0,0.5,1.0000872,0)"
       id="g4163">
      <path
         style="color:#000000;font-style:normal;font-variant:normal;font-weight:normal;font-stretch:normal;font-size:medium;line-height:normal;font-family:sans-serif;text-indent:0;text-align:start;text-decoration:none;text-decoration-line:none;text-decoration-style:solid;text-decoration-color:#000000;letter-spacing:normal;word-spacing:normal;text-transform:none;direction:ltr;block-progression:tb;writing-mode:lr-tb;baseline-shift:baseline;text-anchor:start;white-space:normal;clip-rule:nonzero;display:inline;overflow:visible;visibility:visible;opacity:1;isolation:auto;mix-blend-mode:normal;color-interpolation:sRGB;color-interpolation-filters:linearRGB;solid-color:#000000;solid-opacity:1;fill:#000000;fill-opacity:1;fill-rule:evenodd;stroke:none;stroke-width:4;stroke-linecap:round;stroke-linejoin:round;stroke-miterlimit:4;stroke-dasharray:none;stroke-dashoffset:0;stroke-opacity:1;color-rendering:auto;image-rendering:auto;shape-rendering:auto;text-rendering:auto;enable-background:accumulate"
         d="M 10.945312 3.9882812 A 1.0001 1.0001 0 0 0 10.033203 4.7460938 C 10.033203 4.7460938 9.7878161 5.7189087 9.5253906 7.1132812 C 9.4835345 7.0999284 9.418147 7.0908079 9.3828125 7.0761719 C 9.518606 7.1324194 9.2527516 6.9639085 9.0957031 6.78125 C 8.9386546 6.598591 8.8242188 6.4316406 8.8242188 6.4316406 A 1.0001 1.0001 0 0 0 7.9746094 5.9882812 A 1.0001 1.0001 0 0 0 7.1777344 7.5683594 C 7.1777344 7.5683594 7.344054 7.8117429 7.578125 8.0839844 C 7.812196 8.3562259 8.045873 8.6871821 8.6171875 8.9238281 C 8.8068962 9.0024081 9.0032024 9.0650739 9.203125 9.1191406 C 9.1172902 9.7419187 9.0325635 10.378539 8.9785156 11.050781 C 8.9517756 11.383398 8.9606125 11.72482 8.9453125 12.0625 C 8.7401325 12.113958 8.5186775 12.129094 8.3203125 12.193359 C 7.007873 12.618555 5.8212592 13.335083 5.1386719 14.492188 C 4.5294423 15.524938 4.9491756 16.62982 5.5058594 17.419922 C 6.0625431 18.210024 6.8356858 18.888521 7.9023438 18.994141 C 8.6939938 19.07253 9.4048689 18.807611 10.076172 18.445312 C 10.438857 19.017104 10.892869 19.519854 11.505859 19.869141 C 12.979628 20.708906 14.794129 20.356079 16.3125 19.644531 C 17.071686 19.288758 17.763538 18.815151 18.283203 18.189453 C 18.802869 17.563756 19.155237 16.70792 18.982422 15.810547 C 18.722477 14.460745 17.743364 13.460014 16.572266 12.818359 C 16.210202 12.619981 15.79388 12.500706 15.392578 12.357422 C 15.644185 11.910041 15.892578 11.453125 15.892578 11.453125 A 1.0001 1.0001 0 1 0 14.109375 10.546875 C 14.109375 10.546875 13.807526 11.10512 13.357422 11.859375 C 13.086204 11.821715 12.827859 11.748185 12.552734 11.728516 C 12.02078 11.690486 11.486483 11.723311 10.955078 11.753906 C 10.965848 11.572107 10.958126 11.393818 10.972656 11.212891 C 11.024718 10.565353 11.105478 9.9442443 11.189453 9.3417969 C 11.728572 9.3437002 12.264418 9.3211358 12.767578 9.2832031 C 14.095531 9.1830901 15.181641 8.984375 15.181641 8.984375 A 1.0001 1.0001 0 1 0 14.818359 7.015625 C 14.818359 7.015625 13.829286 7.197831 12.619141 7.2890625 C 12.262763 7.3159295 11.887563 7.3253056 11.517578 7.3242188 C 11.753164 6.0951174 11.966797 5.2539065 11.966797 5.2539062 A 1.0001 1.0001 0 0 0 11.044922 3.9882812 A 1.0001 1.0001 0 0 0 10.945312 3.9882812 z M 12.125 13.726562 C 12.048841 13.832444 12.010814 13.917601 11.931641 14.023438 C 11.658382 14.388723 11.340926 14.641888 11.042969 14.978516 C 10.990463 14.579605 10.936248 14.183789 10.919922 13.748047 C 11.318177 13.718487 11.721128 13.709128 12.125 13.726562 z M 14.294922 14.064453 C 14.778165 14.202808 15.236528 14.364956 15.611328 14.570312 C 16.442748 15.025854 16.897999 15.56852 17.017578 16.189453 C 17.056188 16.389954 17.008235 16.596481 16.746094 16.912109 C 16.483953 17.227738 16.013731 17.575846 15.462891 17.833984 C 14.361211 18.350259 12.965153 18.398133 12.496094 18.130859 C 12.184804 17.953484 11.921207 17.651692 11.695312 17.265625 C 12.365804 16.638091 12.992644 15.943308 13.533203 15.220703 C 13.84667 14.80167 14.031671 14.464005 14.294922 14.064453 z M 8.9492188 14.091797 C 8.9843038 14.751207 9.024396 15.411216 9.1484375 16.03125 C 9.1870325 16.224168 9.2899883 16.387049 9.3398438 16.576172 C 8.8603493 16.861513 8.4203104 17.037615 8.0996094 17.005859 C 7.9702659 16.993049 7.4376035 16.68908 7.140625 16.267578 C 6.8436465 15.846077 6.8599081 15.51022 6.8613281 15.507812 C 7.1984531 14.936327 7.927328 14.422973 8.9375 14.095703 C 8.9414 14.094453 8.9453337 14.093047 8.9492188 14.091797 z "
         transform="matrix(2,0,0,2,-2.0001744,0)"
         id="path4159" />
    </g>
  </g>
</svg>

<?xml version="1.0" encoding="UTF-8" standalone="no"?>
<svg id="svg2817" xmlns:rdf="http://www.w3.org/1999/02/22-rdf-syntax-ns#" xmlns="http://www.w3.org/2000/svg" height="24" width="24" version="1.0" xmlns:cc="http://creativecommons.org/ns#" xmlns:dc="http://purl.org/dc/elements/1.1/">
 <metadata id="metadata57">
  <rdf:RDF>
   <cc:Work rdf:about="">
    <dc:format>image/svg+xml</dc:format>
    <dc:type rdf:resource="http://purl.org/dc/dcmitype/StillImage"/>
    <dc:title/>
   </cc:Work>
  </rdf:RDF>
 </metadata>
 <g id="g4143" transform="translate(1,1)">
  <rect id="rect4203" transform="matrix(0,-1,-1,0,0,0)" rx="1" ry="1" height="20" width="20" y="-21" x="-21" fill="#e9a84a"/>
  <path id="rect4592" opacity=".2" fill="#fff" d="m2 1c-0.554 0-1 0.446-1 1v0.5c0-0.554 0.446-1 1-1h18c0.554 0 1 0.446 1 1v-0.5c0-0.554-0.446-1-1-1h-18z"/>
  <path id="path4597" opacity=".2" d="m2 21.5c-0.554 0-1-0.446-1-1v-0.5c0 0.554 0.446 1 1 1h18c0.554 0 1-0.446 1-1v0.5c0 0.554-0.446 1-1 1h-18z"/>
  <g id="g4163" opacity=".4" transform="matrix(.5 0 0 .5 .0000872 -1)">
   <path id="path4159" opacity="1" style="color-rendering:auto;text-decoration-color:#000000;color:#000000;isolation:auto;mix-blend-mode:normal;shape-rendering:auto;solid-color:#000000;block-progression:tb;text-decoration-line:none;text-decoration-style:solid;image-rendering:auto;white-space:normal;text-indent:0;text-transform:none" d="m10.945 3.9883a1.0001 1.0001 0 0 0 -0.91211 0.75781s-0.24539 0.97281-0.50781 2.3672c-0.0417-0.0134-0.1071-0.0225-0.1424-0.0371 0.1358 0.0562-0.13-0.1123-0.2871-0.295-0.157-0.1826-0.2715-0.3496-0.2715-0.3496a1.0001 1.0001 0 0 0 -0.8496 -0.4433 1.0001 1.0001 0 0 0 -0.7969 1.5801s0.16632 0.24338 0.40039 0.51562 0.46775 0.6032 1.0391 0.83984c0.18971 0.07858 0.38601 0.14125 0.58594 0.19531-0.085835 0.62278-0.17056 1.2594-0.22461 1.9316-0.02674 0.33262-0.017903 0.67404-0.033203 1.0117-0.20518 0.05146-0.42664 0.06659-0.625 0.13086-1.3124 0.4252-2.4991 1.1417-3.1816 2.2988-0.60923 1.0328-0.1895 2.1376 0.36719 2.9277 0.55668 0.7901 1.3298 1.4686 2.3965 1.5742 0.79165 0.07839 1.5025-0.18653 2.1738-0.54883 0.36268 0.57179 0.8167 1.0745 1.4297 1.4238 1.4738 0.83976 3.2883 0.48694 4.8066-0.22461 0.75919-0.35577 1.451-0.82938 1.9707-1.4551 0.51967-0.6257 0.87203-1.4815 0.69922-2.3789-0.25994-1.3498-1.2391-2.3505-2.4102-2.9922-0.36206-0.19838-0.77839-0.31765-1.1797-0.46094 0.25161-0.44738 0.5-0.9043 0.5-0.9043a1.0001 1.0001 0 1 0 -1.7832 -0.90625s-0.30185 0.55824-0.75195 1.3125c-0.27122-0.03766-0.52956-0.11119-0.80469-0.13086-0.53195-0.03803-1.0663-0.0052-1.5977 0.02539 0.01077-0.1818 0.003-0.36009 0.01758-0.54102 0.05206-0.64754 0.13282-1.2686 0.2168-1.8711 0.53912 0.0019 1.075-0.020661 1.5781-0.058594 1.328-0.10011 2.4141-0.29883 2.4141-0.29883a1.001 1.001 0 1 0 -0.36328 -1.9688s-0.98907 0.18221-2.1992 0.27344c-0.35638 0.026867-0.73158 0.036243-1.1016 0.035156 0.23559-1.2291 0.44922-2.0703 0.44922-2.0703a1.0001 1.0001 0 0 0 -0.92188 -1.2656 1.0001 1.0001 0 0 0 -0.09961 0zm1.18 9.7387c-0.07616 0.10588-0.11419 0.19104-0.19336 0.29688-0.27326 0.36528-0.59072 0.61845-0.88867 0.95508-0.05251-0.39891-0.10672-0.79473-0.12305-1.2305 0.39826-0.02956 0.80121-0.03892 1.2051-0.02149zm2.1699 0.33789c0.48324 0.13836 0.94161 0.3005 1.3164 0.50586 0.83142 0.45554 1.2867 0.99821 1.4062 1.6191 0.03861 0.2005-0.0093 0.40703-0.27148 0.72266-0.26214 0.31563-0.73236 0.66374-1.2832 0.92188-1.1017 0.51628-2.4977 0.56415-2.9668 0.29688-0.31129-0.17738-0.57489-0.47917-0.80078-0.86523 0.67049-0.62753 1.2973-1.3223 1.8379-2.0449 0.31347-0.41903 0.49847-0.7567 0.76172-1.1562zm-5.3457 0.02734c0.035085 0.65941 0.075177 1.3194 0.19922 1.9395 0.038595 0.19292 0.14155 0.3558 0.19141 0.54492-0.4796 0.286-0.9196 0.462-1.2403 0.43-0.1293-0.013-0.662-0.317-0.959-0.738-0.297-0.422-0.2807-0.758-0.2793-0.76 0.3372-0.572 1.066-1.085 2.0762-1.412 0.0039-0.0013 0.00783-0.0027 0.011719-0.0039z" fill-rule="evenodd" transform="matrix(2 0 0 2 -2.0002 0)"/>
  </g>
 </g>
</svg>
